Numix/scalable/status/media-playlist-shuffle-symbolic.svg

<?xml version="1.0" encoding="UTF-8" standalone="no"?>
<svg
   xmlns:dc="http://purl.org/dc/elements/1.1/"
   xmlns:cc="http://creativecommons.org/ns#"
   xmlns:rdf="http://www.w3.org/1999/02/22-rdf-syntax-ns#"
   xmlns:svg="http://www.w3.org/2000/svg"
   xmlns="http://www.w3.org/2000/svg"
   xmlns:sodipodi="http://sodipodi.sourceforge.net/DTD/sodipodi-0.dtd"
   xmlns:inkscape="http://www.inkscape.org/namespaces/inkscape"
   width="16"
   height="16"
   id="svg2"
   version="1.1"
   inkscape:version="0.91 r"
   sodipodi:docname="media-playlist-shuffle-symbolic.svg">
  <metadata
     id="metadata17">
    <rdf:RDF>
      <cc:Work
         rdf:about="">
        <dc:format>image/svg+xml</dc:format>
        <dc:type
           rdf:resource="http://purl.org/dc/dcmitype/StillImage" />
        <dc:title />
      </cc:Work>
    </rdf:RDF>
  </metadata>
  <defs
     id="defs15" />
  <sodipodi:namedview
     pagecolor="#ffffff"
     bordercolor="#666666"
     borderopacity="1"
     objecttolerance="10"
     gridtolerance="10"
     guidetolerance="10"
     inkscape:pageopacity="0"
     inkscape:pageshadow="2"
     inkscape:window-width="1920"
     inkscape:window-height="1056"
     id="namedview13"
     showgrid="false"
     inkscape:zoom="29.5"
     inkscape:cx="19.009976"
     inkscape:cy="7.159256"
     inkscape:window-x="0"
     inkscape:window-y="24"
     inkscape:window-maximized="1"
     inkscape:current-layer="svg2" />
  <path
     style="color:#bebebe;fill:#bebebe;fill-opacity:1"
     inkscape:connector-curvature="0"
     d="m 1,2.99528 0,2 c 1.068675,0.0119 1.933232,-0.044 3,0 1.441942,0 1.486136,0 2,1 l 1,4 c 1,3 1,3 2.187598,2.99996 l 3.3749,0 c -0.375792,0.32137 -0.725348,0.79471 -0.529143,1.31452 0.208347,0.75499 1.297649,0.94274 1.764985,0.32464 C 14.669172,13.75617 15.152273,12.8961 16,11.99528 15.101516,11.0451 14.57147,10.13152 13.645793,9.20814 c -0.607961,-0.5622 -1.733859,-0.0578 -1.686082,0.77981 -0.01962,0.43531 0.319888,0.73088 0.602787,1.00729 -1.25616,-0.0122 -0.30825,0.0444 -1.562498,4e-5 -1.53033,0 -1.541966,0 -2,-1 l -1,-4 c -1,-3 -1,-3 -3,-3 z"
     id="0-5"
     sodipodi:nodetypes="ccccccccccccccccsc" />
  <path
     style="color:#bebebe;fill:#bebebe;fill-opacity:1"
     d="M 13.089844,0.99804688 C 12.638305,0.96850498 12.16342,1.2175844 12.033203,1.6894531 c -0.196205,0.51981 0.153505,0.9930831 0.529297,1.3144531 l -3.375,0 C 8.4094235,3.00388 8.1393732,3.0215537 7.765625,3.8652344 7.9836579,4.3470085 8.1817232,4.9631383 8.4746094,5.8417969 L 8.4804688,5.859375 8.7578125,6.9707031 9,6.0039062 c 0.458034,-0.9999999 0.46967,-1 2,-1 1.254248,-0.04436 0.30634,0.0122 1.5625,0 -0.282899,0.2764101 -0.623136,0.5725025 -0.603516,1.0078126 -0.04778,0.8376099 1.079539,1.3414968 1.6875,0.7792968 C 14.572161,5.8676356 15.101516,4.9540862 16,4.0039062 15.152273,3.1030862 14.66966,2.2434644 13.798828,1.3652344 13.623577,1.1334469 13.360767,1.015772 13.089844,0.99804688 Z M 6.2421875,9.0332031 6,10.003906 c -0.513864,1 -0.558058,1 -2,1 -1.066768,0.044 -1.931325,-0.0119 -3,0 l 0,2 4,0 c 1.3203768,0 1.7687757,-0.01959 2.2089844,-0.882812 C 7.0191433,11.652633 6.8217383,11.047246 6.5253906,10.158203 l -0.00586,-0.01758 z"
     id="path4184"
     inkscape:connector-curvature="0"
     sodipodi:nodetypes="sccccscccccccccscccccscscc" />
</svg>

<svg xmlns="http://www.w3.org/2000/svg" viewBox="0 0 16 16">
 <path d="m 1 2.995 0 2 c 1.069 0.012 1.933 -0.044 3 0 1.442 0 1.486 0 2 1 l 1 4 c 1 3 1 3 2.188 3 l 3.375 0 c -0.376 0.321 -0.725 0.795 -0.529 1.315 0.208 0.755 1.298 0.943 1.765 0.325 c 0.871 -0.878 1.354 -1.738 2.202 -2.639 -0.898 -0.95 -1.429 -1.864 -2.354 -2.787 c -0.608 -0.562 -1.734 -0.058 -1.686 0.78 -0.02 0.435 0.32 0.731 0.603 1.01 -1.256 -0.012 -0.308 0.044 -1.562 0 -1.53 0 -1.542 0 -2 -1 l -1 -4 c -1 -3 -1 -3 -3 -3 z" style="fill:#bebebe;fill-opacity:1;color:#bebebe"/>
 <path d="m 13.09 0.998 c -0.452 -0.03 -0.926 0.22 -1.057 0.691 c -0.196 0.52 0.154 0.993 0.529 1.314 l -3.375 0 c -0.778 0 -1.048 0.018 -1.422 0.861 0.218 0.482 0.416 1.098 0.709 1.977 l 0.006 0.018 0.277 1.111 0.242 -0.967 c 0.458 -1 0.47 -1 2 -1 1.254 -0.044 0.306 0.012 1.563 0 -0.283 0.276 -0.623 0.573 -0.604 1.01 -0.048 0.838 1.08 1.341 1.688 0.779 c 0.926 -0.923 1.455 -1.837 2.354 -2.787 -0.848 -0.901 -1.33 -1.76 -2.201 -2.639 -0.175 -0.232 -0.438 -0.349 -0.709 -0.367 m -6.848 8.04 -0.242 0.971 c -0.514 1 -0.558 1 -2 1 -1.067 0.044 -1.931 -0.012 -3 0 l 0 2 4 0 c 1.32 0 1.769 -0.02 2.209 -0.883 c -0.19 -0.468 -0.387 -1.074 -0.684 -1.963 l -0.006 -0.018 z" style="fill:#bebebe;fill-opacity:1;color:#bebebe"/>
</svg>
